X: 55
T:Dwr Glan
T:Fresh Water
T:Rhuad Teirw'r Dyffrin
M:2/4
L:1/8
Q:180
S:Cadw Twmpath Collection
A:Wales
Z:brian_martin12345@yahoo.com
K:Am
A/B/|cc/d/ BB/c/|AA/B/ c/B/c/A/|BB/c/ AA/B/|^GE GB|
cc/d/ cB|AA/B/ cd|ee/f/ e/d/c/B/|A3:||
c/d/|ee/f/ dd/e/|cc c/d/e/f/|ge fd|ec c/d/e/f/|
ee/f/ dd/e/|cc c/d/e/f/|ge fd|ee/f/ e/d/c/B/|
cc/d/ BB/c/|AA/B/ c/B/c/A/|BB/c/ AA/B/|^GE GA|
cc/d/ cB|AA/B/ cd|ee/f/ e/d/c/B/|A3:||
